labtop/public/img/trust-icon.svg

<svg width="54" height="54" viewBox="0 0 54 54" fill="none" xmlns="http://www.w3.org/2000/svg">
<path d="M2.83379 45.1208H0V31.802H11.9964V34.6358H2.83379V45.1208ZM13.4133 37.2807H10.5795V51.1662H1.41689V54H13.4133V37.2807ZM32.069 2H18.6558V34.3524H21.4896V4.83379H29.2352V51.1662H20.0727V54H32.069V2ZM21.4896 37.2807H18.6558V40.3978H21.4896V37.2807ZM51.2443 44.5068H48.4105V51.1662H40.6648V48.5686H37.8311V54H51.2443V44.5068ZM40.6648 21.9782H48.4105V38.1308H51.2443V19.1444H37.8311V45.1208H40.6648V21.9782Z" fill="#1F65D9"/>
</svg>

<svg width="54" height="54" fill="none" xmlns="http://www.w3.org/2000/svg"><path d="M2.834 45.12H0V31.803h11.996v2.834H2.834V45.12zm10.58-7.84h-2.835v13.886H1.417V54h11.996V37.28zM32.068 2H18.656v32.352h2.834V4.834h7.745v46.332h-9.162V54h11.996V2zm-10.58 35.28h-2.833v3.118h2.834V37.28zm29.755 7.227H48.41v6.66h-7.745v-2.598H37.83V54h13.413v-9.493zm-10.58-22.529h7.746v16.153h2.834V19.144H37.831v25.977h2.834V21.978z" fill="#1F65D9"/></svg>
